assets/images/afrikons/dislike-outline.svg

<svg viewBox="0 0 50 50" xmlns="http://www.w3.org/2000/svg"><g fill="none"><path d="m0 0h50v50h-50z"/><path d="m15.34 6.08a4 4 0 0 0 -3.9-3.39 3.91 3.91 0 0 0 -.49 0h-.09l-6.43.31a4 4 0 0 0 -3.43 3.9v18.43a4 4 0 0 0 4 4l8.83-.11a4 4 0 0 0 3.87-4.51z"/><path d="m46.83 16.49c-1.75-8.38-4.59-13.41-7.83-13.81h-16.45a3.85 3.85 0 0 0 -3.8 4.39l3.35 23.15a6.32 6.32 0 0 0 2 3.81l14.4 13a1.39 1.39 0 0 0 .85.31 1.48 1.48 0 0 0 1.17-.6 1.33 1.33 0 0 0 .23-1.14l-8-14.82-.75-1.49h13.49c1.54 0 2.56-.32 3-.95 1-1.31.18-4.42-.69-7.71-.3-1.33-.67-2.71-.97-4.14z"/></g><path d="m16.34 6a5 5 0 0 0 -4.9-4.27 4.3 4.3 0 0 0 -.62 0l-6.47.27a5 5 0 0 0 -4.35 4.9v18.43a5 5 0 0 0 5 5l8.77-.1a5 5 0 0 0 4.85-5.65zm.39 21.84a4 4 0 0 1 -3 1.38l-8.73.07a4 4 0 0 1 -3.95-4v-18.39a4 4 0 0 1 3.38-3.9l6.43-.25h.14a3.91 3.91 0 0 1 .49 0 4 4 0 0 1 3.9 3.39l2.31 18.59a4 4 0 0 1 -.97 3.07z"/><path d="m47.81 16.28c-1.12-5.34-3.7-14-8.71-14.6h-16.55a4.84 4.84 0 0 0 -4.79 5.53l3.35 23.15a7.36 7.36 0 0 0 2.36 4.41l14.41 13a2.34 2.34 0 0 0 1.51.56 2.42 2.42 0 0 0 2.33-3.12l-8-14.91h11.77c7.34-.01 3.87-6.62 2.32-14.02zm.73 12.06c-.49.63-1.51.95-3 .95h-13.54l.8 1.47 8 14.82a1.33 1.33 0 0 1 -.23 1.14 1.48 1.48 0 0 1 -1.17.6 1.39 1.39 0 0 1 -.85-.31l-14.41-13.01a6.32 6.32 0 0 1 -2-3.81l-3.39-23.12a3.85 3.85 0 0 1 3.8-4.39h16.45c3.2.4 6 5.43 7.79 13.81.3 1.43.67 2.81 1 4.14.93 3.29 1.75 6.37.75 7.71z"/></svg>

<svg xmlns="http://www.w3.org/2000/svg" viewBox="0 0 50 50"><defs><style>.cls-1{fill:none;}</style></defs><title>dislike-outline</title><g id="Layer_2" data-name="Layer 2"><g id="Layer_1-2" data-name="Layer 1"><rect class="cls-1" width="50" height="50"/><path class="cls-1" d="M15.34,6.08a4,4,0,0,0-3.9-3.39,3.91,3.91,0,0,0-.49,0h-.09L4.43,3A4,4,0,0,0,1,6.9V25.33a4,4,0,0,0,4,4l8.83-.11a4,4,0,0,0,3.87-4.51Z"/><path class="cls-1" d="M46.83,16.49C45.08,8.11,42.24,3.08,39,2.68H22.55a3.85,3.85,0,0,0-3.8,4.39L22.1,30.22a6.32,6.32,0,0,0,2,3.81l14.4,13a1.39,1.39,0,0,0,.85.31,1.48,1.48,0,0,0,1.17-.6,1.33,1.33,0,0,0,.23-1.14l-8-14.82L32,29.29H45.49c1.54,0,2.56-.32,3-.95,1-1.31.18-4.42-.69-7.71C47.5,19.3,47.13,17.92,46.83,16.49Z"/><path d="M16.34,6a5,5,0,0,0-4.9-4.27,4.3,4.3,0,0,0-.62,0L4.35,2A5,5,0,0,0,0,6.9V25.33a5,5,0,0,0,5,5H5l8.77-.1a5,5,0,0,0,4.85-5.65Zm.39,21.84a4,4,0,0,1-3,1.38L5,29.29a4,4,0,0,1-3.95-4V6.9A4,4,0,0,1,4.43,3l6.43-.25H11a3.91,3.91,0,0,1,.49,0,4,4,0,0,1,3.9,3.39l2.31,18.59A4,4,0,0,1,16.73,27.8Z"/><path d="M47.81,16.28c-1.12-5.34-3.7-14-8.71-14.6H22.55a4.84,4.84,0,0,0-4.79,5.53l3.35,23.15a7.36,7.36,0,0,0,2.36,4.41l14.41,13a2.34,2.34,0,0,0,1.51.56,2.42,2.42,0,0,0,2.33-3.12l-8-14.91H45.49C52.83,30.29,49.36,23.68,47.81,16.28Zm.73,12.06c-.49.63-1.51.95-3,.95H32l.8,1.47,8,14.82a1.33,1.33,0,0,1-.23,1.14,1.48,1.48,0,0,1-1.17.6,1.39,1.39,0,0,1-.85-.31L24.14,34a6.32,6.32,0,0,1-2-3.81L18.75,7.07a3.85,3.85,0,0,1,3.8-4.39H39c3.2.4,6,5.43,7.79,13.81.3,1.43.67,2.81,1,4.14C48.72,23.92,49.54,27,48.54,28.34Z"/></g></g></svg>
